build/system/MicrophoneOffSolid.svg

<svg xmlns="http://www.w3.org/2000/svg" fill="none" viewBox="0 0 24 24" focusable="false"><path d="M0 0H24V24H0z"/><path fill="#74767B" fill-rule="evenodd" d="M18.8585 21.7439L18.3046 21.0245C18.2902 20.9995 18.274 20.9751 18.2559 20.9516L4.41185 2.97039C4.25202 2.69278 4.31833 2.33295 4.57933 2.13224C4.86384 1.91345 5.27195 1.96659 5.49087 2.25093L7.83041 5.28964C8.27881 3.4032 9.97563 2.00001 12.0004 2.00001C14.3674 2.00001 16.2863 3.91772 16.2863 6.28333L16.2863 11.1265C16.2863 12.4166 15.7156 13.5734 14.8128 14.3587L15.6772 15.4815C16.9153 14.4362 17.7016 12.8732 17.7016 11.1266C17.7016 10.7678 17.9926 10.477 18.3516 10.477C18.7106 10.477 19.0016 10.7678 19.0016 11.1266C19.0016 13.2925 18.017 15.2285 16.4707 16.512L19.8888 20.9516C20.1077 21.236 20.0546 21.6439 19.7701 21.8626C19.4855 22.0814 19.0774 22.0283 18.8585 21.7439ZM7.71449 11.1265L7.71449 10.2719C7.71449 9.98552 8.07748 9.86197 8.25219 10.0889L12.1321 15.1283C12.221 15.2437 12.1461 15.4098 12.0004 15.4098C9.63335 15.4098 7.71449 13.4921 7.71449 11.1265ZM13.1307 16.7127C12.7653 16.7862 12.3872 16.8247 12.0001 16.8247C8.85123 16.8247 6.29857 14.2736 6.29857 11.1266C6.29857 10.7678 6.00755 10.477 5.64857 10.477C5.28958 10.477 4.99857 10.7678 4.99857 11.1266C4.99857 14.7724 7.78841 17.7669 11.3509 18.0943C11.3505 18.1041 11.3502 18.114 11.3502 18.124L11.3502 20.6941L8.65013 20.6941C8.29115 20.6941 8.00013 20.985 8.00013 21.3437C8.00013 21.7025 8.29114 21.9933 8.65013 21.9933L15.3501 21.9933C15.7091 21.9933 16.0001 21.7025 16.0001 21.3437C16.0001 20.985 15.7091 20.6941 15.3501 20.6941L12.6502 20.6941L12.6502 18.124C12.6502 18.114 12.65 18.1041 12.6496 18.0942C13.0315 18.0591 13.4045 17.9934 13.7662 17.8994C13.9668 17.8473 14.0411 17.6078 13.9147 17.4436L13.4383 16.8248C13.3663 16.7314 13.2464 16.6894 13.1307 16.7127Z"/></svg>

<svg xmlns="http://www.w3.org/2000/svg" fill="none" viewBox="0 0 24 24" focusable="false"><path fill="#74767B" fill-rule="evenodd" d="m18.85 21.74-.55-.72a.2.2 0 0 0-.05-.07L4.41 2.97a.65.65 0 0 1 1.08-.72l2.34 3.03A4.274 4.274 0 0 1 12 2c2.36 0 4.28 1.91 4.28 4.28v4.84c0 1.29-.57 2.45-1.47 3.23l.86 1.13a5.7 5.7 0 0 0 2.03-4.36c0-.36.29-.65.65-.65s.65.29.65.65c0 2.17-.99 4.1-2.53 5.39l3.41 4.44c.22.28.17.69-.11.91-.29.22-.7.16-.92-.12M7.71 10.27v.85A4.28 4.28 0 0 0 12 15.4c.14 0 .22-.16.13-.28l-3.88-5.04c-.18-.22-.54-.1-.54.19m5.42 6.44c-.37.07-.75.11-1.13.11-3.15 0-5.71-2.55-5.71-5.7 0-.36-.29-.65-.65-.65s-.65.29-.65.65c0 3.65 2.79 6.64 6.36 6.97v2.6H8.64c-.35 0-.64.29-.64.65s.29.65.64.65h6.71c.35 0 .65-.29.65-.65s-.3-.65-.65-.65h-2.7v-2.57c0-.01-.01-.02-.01-.03.39-.04.76-.1 1.12-.2.2-.05.28-.29.15-.45l-.48-.62a.29.29 0 0 0-.3-.11"/></svg>
